X:2325
T:Gosson that Beat His Father, The
O:england
R:reel
S:Paddy O'Neill
D:Cathal McConnell: On Lough Erne Shore
M:C|
K:Amix
eA~A2 eA~A2|BG~G2 Bcdg|eA{c}BA eA{c}BA|Be{a}ed (3Bcd A2|
eA{c}BA eA~A2|BG~G2 Bcdg|~e3d {c}BAGA|Be{a}ed (3Bcd A2:|
|:ab{c'}ag edef|~g2bg dgbg|az{c}ag ed{c}BA|Be{a}ed (3Bcd A2:|


